X: 43277
T: Wood's
R: waltz
M: 3/4
K: Cdorian
B2dBd2|e3dcB|1 A3Bce|de dcBG:|2 A2BcBA|G4zg||
ab bg dg|de ed cB|1 A3Bce|de dcBG:|2 A3Bc/B/A|A4zA||

